img/footer/yt.svg

<svg width="31" height="31" viewBox="0 0 31 31" fill="none" xmlns="http://www.w3.org/2000/svg">
<path d="M29.4173 8.23579C29.0824 6.99074 28.1007 6.00927 26.8558 5.67402C24.5816 5.05176 15.4845 5.05176 15.4845 5.05176C15.4845 5.05176 6.38775 5.05176 4.11352 5.65043C2.89259 5.98533 1.887 6.99091 1.5521 8.23579C0.953613 10.5098 0.953613 15.2259 0.953613 15.2259C0.953613 15.2259 0.953613 19.9658 1.5521 22.2161C1.88736 23.461 2.86864 24.4424 4.1137 24.7777C6.4117 25.4001 15.4849 25.4001 15.4849 25.4001C15.4849 25.4001 24.5816 25.4001 26.8558 24.8014C28.1009 24.4664 29.0824 23.4849 29.4176 22.24C30.0159 19.9658 30.0159 15.2499 30.0159 15.2499C30.0159 15.2499 30.0399 10.5098 29.4173 8.23579ZM12.5882 19.5828V10.869L20.1529 15.2259L12.5882 19.5828Z" fill="white"/>
</svg>

<svg width="31" height="31" fill="none" xmlns="http://www.w3.org/2000/svg"><path d="M29.417 8.236a3.64 3.64 0 0 0-2.561-2.562c-2.274-.622-11.372-.622-11.372-.622s-9.096 0-11.37.598a3.715 3.715 0 0 0-2.562 2.586c-.598 2.274-.598 6.99-.598 6.99s0 4.74.598 6.99a3.642 3.642 0 0 0 2.562 2.562c2.298.622 11.37.622 11.37.622s9.098 0 11.372-.599a3.64 3.64 0 0 0 2.562-2.561c.598-2.274.598-6.99.598-6.99s.024-4.74-.599-7.014zM12.588 19.583v-8.714l7.565 4.357-7.565 4.357z" fill="#fff"/></svg>
